src/svg/color/grc.svg

<svg xmlns="http://www.w3.org/2000/svg" width="32" height="32" viewBox="0 0 32 32"><g fill="none" fill-rule="evenodd"><circle cx="16" cy="16" r="16" fill="#5411B3"/><path fill="#FFF" d="M16.0527013,5 C16.5827832,5.319 17.1087584,5.645315 17.6437681,5.95579 C20.1778232,7.42627 22.7137399,8.89356 25.2514635,10.35766 C25.4184658,10.453965 25.4923301,10.561215 25.4920564,10.766255 C25.4871832,14.258315 25.4884973,17.750375 25.4999958,21.24238 C25.5007624,21.470245 25.3961258,21.56501 25.2301639,21.66104 C22.2133899,23.4074 19.1979301,25.156125 16.1826346,26.905015 C16.136531,26.9318 16.0959029,26.968155 16.0527013,27 L15.9431916,27 C15.0322897,26.46375 14.1238518,25.923155 13.2099384,25.392185 C11.0559916,24.140715 8.90062117,22.89172 6.7418012,21.648775 C6.55908423,21.543615 6.49945618,21.424155 6.50000373,21.21422 C6.50909304,17.74988 6.51243308,14.28554 6.50482216,10.8212 C6.50427461,10.572545 6.59013023,10.447695 6.79403734,10.33016 C9.7826125,8.607175 12.7671358,6.87704 15.7517138,5.14707 C15.820705,5.107085 15.8796212,5.04939 15.9431916,5 L16.0527013,5 Z M18.8589099,22.4795665 C19.2723092,22.7629815 19.6760715,23.0605865 20.0919347,23.3599515 C20.1150412,23.3492265 20.1488797,23.3364665 20.1797615,23.3186465 C21.530783,22.5379215 22.8830091,21.7592315 24.2286098,20.9691565 C24.3081139,20.9224615 24.3789119,20.7844115 24.3791309,20.6887115 C24.3860848,17.5633365 24.3852087,14.4379065 24.3762837,11.3125315 C24.3760099,11.2187565 24.3003934,11.0847215 24.2202871,11.0376415 C22.8905652,10.2564215 21.5530134,9.4886765 20.2221418,8.7093815 C20.0837215,8.6283115 20.0067909,8.6533915 19.8904916,8.7441415 C19.5668356,8.9967015 16.3913273,10.9371015 15.146804,11.6833415 C14.1749052,12.2661215 13.2247441,12.8797565 12.4725765,13.7540365 C11.4360122,14.9588665 11.3394247,16.6292165 12.2455629,17.9394265 C12.6949908,18.5893065 13.2935162,19.0827115 13.9366121,19.5219965 C14.4475297,19.8709715 14.9753118,20.1948665 15.4962496,20.5303665 C15.4817943,20.5497815 15.4741834,20.5693615 15.4601114,20.5775565 C14.7737044,20.9763615 14.0891591,21.3786865 13.3957983,21.7648965 C13.3294901,21.8019115 13.1904128,21.7656115 13.1141393,21.7172115 C12.370623,21.2451465 11.7090747,20.6743565 11.1003102,20.0361915 C9.37065882,18.2230615 9.01825652,15.2502565 10.2798633,13.0812215 C10.8712158,12.0646015 11.6716772,11.2341015 12.6405097,10.6000065 C13.8991597,9.7762165 17.4099868,7.6927065 17.874527,7.4084115 C17.8350488,7.3563265 17.8235502,7.3277265 17.8025791,7.3154615 C17.2510882,6.9929415 16.7020611,6.6657465 16.1424665,6.3580765 C16.0613745,6.3134715 15.9115652,6.3304115 15.8228623,6.3761715 C15.5150852,6.5347915 15.2199018,6.7180515 14.9205569,6.8930615 C14.6565837,7.0473365 14.3935414,7.2030965 14.0905827,7.3815165 C14.5935609,7.6976565 15.0509283,7.9851965 15.5290477,8.2857715 C14.794347,8.7201065 14.0985769,9.1355215 13.3959625,9.5390565 C13.3401673,9.5711215 13.2200899,9.5461515 13.1593668,9.5044065 C12.8135351,9.2667515 12.4681961,9.0266765 12.1407073,8.7647665 C11.996264,8.6492665 11.8996217,8.6375515 11.737602,8.7325365 C10.4306034,9.4984115 9.11812939,10.2549915 7.80406744,11.0086565 C7.65913132,11.0918165 7.61176836,11.1894415 7.61204214,11.3566965 C7.61675106,14.4546265 7.61582022,17.5525015 7.61067327,20.6504865 C7.61039949,20.8155415 7.65436765,20.9137165 7.80313661,20.9990765 C9.10876631,21.7483965 10.4105632,22.5044265 11.7097865,23.2649665 C11.8543394,23.3495015 11.9490653,23.3462015 12.094549,23.2489065 C13.0265315,22.6256465 17.2908949,19.9529765 18.4760639,19.2164165 C18.6772881,19.0913465 18.845057,18.9119365 19.0283762,18.7576065 C19.0181918,18.7345615 19.0080074,18.7114615 18.997823,18.6883615 L14.572316,18.6883615 C15.0227295,17.9058215 15.4415495,17.1675015 15.8771791,16.4393565 C15.9167669,16.3731915 16.0644955,16.3453065 16.1620687,16.3450315 C18.1694915,16.3400265 20.1768595,16.3415115 22.1842823,16.3424465 C22.2643339,16.3425015 22.3444402,16.3506965 22.4410826,16.3559765 C22.4455177,16.4507415 22.4679124,16.5351115 22.4499529,16.6098015 C22.3181031,17.1587015 22.2298383,17.7255865 22.0304758,18.2493515 C21.5559155,19.4959815 20.6772094,20.4541915 19.6057663,21.1915215 C18.4353811,21.9968865 14.7113386,24.1917165 14.0787009,24.5689615 C14.1084876,24.6219815 14.1132512,24.6440915 14.1263924,24.6518465 C14.5108263,24.8793815 14.923897,25.0692415 15.2746019,25.3405015 C15.7797702,25.7311665 16.2196708,25.7286915 16.725551,25.3407215 C17.088959,25.0620365 17.5146233,24.8653015 17.9563855,24.6063065 C17.4431135,24.2854365 16.9744118,23.9923965 16.4922405,23.6909965 C16.5324306,23.6556315 16.5550991,23.6281865 16.5839002,23.6114115 C17.2545925,23.2221765 17.9238612,22.8304115 18.600467,22.4517915 C18.6637636,22.4163165 18.7941349,22.4352365 18.8589099,22.4795665 Z M21.7528139,13.1431515 C22.0975506,13.7546415 22.3548437,14.5415815 22.3926793,15.1493865 C21.7154164,15.1493865 21.060603,15.1527965 20.4059538,15.1436665 C20.3461068,15.1428415 20.2518736,15.0732665 20.2333117,15.0160665 C19.9132696,14.0279365 19.2300932,13.3258615 18.4237183,12.7364815 C17.8502159,12.3173265 17.2403562,11.9482765 16.6468682,11.5566215 C16.5968771,11.5236215 16.5482547,11.4885315 16.4674913,11.4325965 C16.6019693,11.3520215 16.7079199,11.2869565 16.815349,11.2244765 C17.367059,10.9034965 17.9155932,10.5766865 18.4744213,10.2686865 C18.5748965,10.2133015 18.7556423,10.1790365 18.8361319,10.2319465 C20.005422,11.0007915 21.0514041,11.8989965 21.7528139,13.1431515 Z"/></g></svg>

<svg xmlns="http://www.w3.org/2000/svg" width="32" height="32" viewBox="0 0 32 32"><g fill="none" fill-rule="evenodd"><circle cx="16" cy="16" r="16" fill="#5411B3"/><path fill="#FFF" d="M16.053 5c.53.319 1.056.645 1.59.956 2.535 1.47 5.07 2.938 7.608 4.402.167.096.241.203.241.408-.005 3.492-.004 6.984.008 10.476 0 .228-.104.323-.27.419-3.017 1.746-6.032 3.495-9.047 5.244-.046.027-.087.063-.13.095h-.11c-.91-.536-1.82-1.077-2.733-1.608-2.154-1.251-4.31-2.5-6.468-3.743-.183-.105-.243-.225-.242-.435.01-3.464.012-6.928.005-10.393 0-.248.085-.373.289-.49 2.989-1.724 5.973-3.454 8.958-5.184.069-.04.128-.098.191-.147h.11zm2.806 17.48c.413.283.817.58 1.233.88.023-.01.057-.024.088-.041 1.35-.781 2.703-1.56 4.049-2.35.08-.047.15-.185.15-.28.007-3.126.006-6.251-.003-9.376a.377.377 0 0 0-.156-.275c-1.33-.782-2.667-1.55-3.998-2.329-.138-.08-.215-.056-.332.035-.323.253-3.499 2.193-4.743 2.94-.972.582-1.922 1.196-2.674 2.07-1.037 1.205-1.134 2.875-.227 4.185.449.65 1.048 1.144 1.69 1.583.512.349 1.04.673 1.56 1.008-.014.02-.022.04-.036.048-.686.398-1.37.8-2.064 1.187-.067.037-.206 0-.282-.048a10.765 10.765 0 0 1-2.014-1.68c-1.73-1.814-2.082-4.787-.82-6.956a7.38 7.38 0 0 1 2.36-2.481c1.26-.824 4.77-2.907 5.235-3.192-.04-.052-.051-.08-.072-.093-.552-.322-1.1-.65-1.66-.957-.082-.045-.231-.028-.32.018-.308.159-.603.342-.902.517-.264.154-.527.31-.83.489l1.438.904c-.735.434-1.43.85-2.133 1.253-.056.032-.176.007-.237-.035a17.38 17.38 0 0 1-1.018-.74c-.145-.115-.241-.126-.403-.031a488.06 488.06 0 0 1-3.934 2.276c-.145.083-.192.18-.192.348.005 3.098.004 6.196-.001 9.293 0 .166.043.264.192.35 1.306.748 2.608 1.504 3.907 2.265.144.085.24.081.385-.016.932-.623 5.196-3.296 6.381-4.033.201-.125.37-.304.552-.458l-.03-.07h-4.426c.45-.782.87-1.52 1.305-2.249.04-.066.187-.094.285-.094 2.007-.005 4.015-.003 6.022-.003.08 0 .16.009.257.014.005.095.027.18.009.254-.132.549-.22 1.116-.42 1.64-.474 1.246-1.353 2.204-2.424 2.942-1.17.805-4.895 3-5.527 3.377.03.053.034.075.047.083.385.227.798.417 1.149.689.505.39.945.388 1.45 0 .364-.279.79-.476 1.231-.735l-1.464-.915c.04-.035.063-.063.092-.08.67-.389 1.34-.78 2.016-1.16.064-.035.194-.016.259.029zm2.894-9.337c.345.612.602 1.399.64 2.006-.678 0-1.332.004-1.987-.005-.06-.001-.154-.07-.173-.128-.32-.988-1.003-1.69-1.81-2.28-.573-.419-1.183-.788-1.776-1.18-.05-.032-.099-.067-.18-.123.135-.081.24-.146.348-.209.552-.32 1.1-.647 1.66-.955.1-.056.28-.09.361-.037 1.17.769 2.215 1.667 2.917 2.911z"/></g></svg>
